X:48
T:Holleblokkendans
O:Vlaanderen
Z:Bert Van Vreckem, 2004-04-03 <http://flanders.blackmill.net/music/>
M:2/4
L:1/8
K:G
P:A
G/A/B/c/ dd|ee dd|G/A/B/c/ dd|cB/A/ G2|G/A/B/c/ dd|ge dd|G/A/B/c/ dd|cB/A/ G2:|
P:B
|:F>G AA|BB AA|F>G AA|GF/E/ D2|F>G AA|dB AA|F>G AA|GF/E/ D2:|

